X:6431
T:Golden Egg. JMT097
M:4/4
L:1/8
Q:200
S:J.Moore,Tyneside,1841.(68b)
R:Reel
O:England
A:Northumbria
N:Perhaps from the Panto "Harlequin and the Golden Egg
Z:C.G.P
K:D
d2fdB2B2|ceag fedc|d2fdB2ed|cABcd2A2:|!
|:f2ffg2gg|abag fede|f2ffg2gg|a2c2d4:|]
